src/lib/packages/icons/src/assets/filled/file-list-check.svg

<svg width="24" height="24" viewBox="0 0 24 24" fill="none" xmlns="http://www.w3.org/2000/svg">
<path d="M12.75 5V2.75L17.25 7.25H15C13.42 7.25 12.75 6.58 12.75 5ZM12.74 19.6C12.8 19.8 12.66 20 12.46 20H6C4 20 3 19 3 17V5C3 3 4 2 6 2H11.25V5C11.25 7.42 12.58 8.75 15 8.75H18V12.21C18 12.37 17.87 12.5 17.71 12.51C14.82 12.66 12.5 15.07 12.5 18C12.5 18.56 12.58 19.1 12.74 19.6ZM7.75 15C7.75 14.586 7.414 14.25 7 14.25C6.586 14.25 6.25 14.586 6.25 15C6.25 15.414 6.586 15.75 7 15.75C7.414 15.75 7.75 15.414 7.75 15ZM7.75 11C7.75 10.586 7.414 10.25 7 10.25C6.586 10.25 6.25 10.586 6.25 11C6.25 11.414 6.586 11.75 7 11.75C7.414 11.75 7.75 11.414 7.75 11ZM11.75 15C11.75 14.586 11.414 14.25 11 14.25H9.5C9.086 14.25 8.75 14.586 8.75 15C8.75 15.414 9.086 15.75 9.5 15.75H11C11.414 15.75 11.75 15.414 11.75 15ZM14 11.75C14.414 11.75 14.75 11.414 14.75 11C14.75 10.586 14.414 10.25 14 10.25H9.5C9.086 10.25 8.75 10.586 8.75 11C8.75 11.414 9.086 11.75 9.5 11.75H14ZM22 18C22 20.209 20.209 22 18 22C15.791 22 14 20.209 14 18C14 15.791 15.791 14 18 14C20.209 14 22 15.791 22 18ZM19.604 16.813C19.409 16.618 19.092 16.618 18.897 16.813L17.584 18.126L17.105 17.646C16.91 17.451 16.5929 17.451 16.3979 17.646C16.2029 17.841 16.2029 18.158 16.3979 18.353L17.231 19.186C17.325 19.28 17.452 19.332 17.585 19.332C17.718 19.332 17.845 19.279 17.939 19.186L19.606 17.519C19.799 17.325 19.799 17.009 19.604 16.813Z" fill="currentColor"/>
</svg>

<svg xmlns="http://www.w3.org/2000/svg" width="24" height="24" fill="none"><path fill="currentColor" d="M12.75 5V2.75l4.5 4.5H15c-1.58 0-2.25-.67-2.25-2.25Zm-.01 14.6c.06.2-.08.4-.28.4H6c-2 0-3-1-3-3V5c0-2 1-3 3-3h5.25v3c0 2.42 1.33 3.75 3.75 3.75h3v3.46c0 .16-.13.29-.29.3-2.89.15-5.21 2.56-5.21 5.49 0 .56.08 1.1.24 1.6ZM7.75 15a.75.75 0 1 0-1.5 0 .75.75 0 0 0 1.5 0Zm0-4a.75.75 0 1 0-1.5 0 .75.75 0 0 0 1.5 0Zm4 4a.75.75 0 0 0-.75-.75H9.5a.75.75 0 0 0 0 1.5H11a.75.75 0 0 0 .75-.75ZM14 11.75a.75.75 0 0 0 0-1.5H9.5a.75.75 0 0 0 0 1.5H14ZM22 18a4 4 0 1 1-8 0 4 4 0 0 1 8 0Zm-2.396-1.187a.5.5 0 0 0-.707 0l-1.313 1.313-.479-.48a.5.5 0 0 0-.707.707l.833.833a.5.5 0 0 0 .708 0l1.667-1.667a.501.501 0 0 0-.002-.706Z"/></svg>
